assets/svgs/misc-grey/MiscGrey44.svg

<svg width="40" height="41" viewBox="0 0 40 41" fill="none" xmlns="http://www.w3.org/2000/svg">
<path fill-rule="evenodd" clip-rule="evenodd" d="M23.21 37.51C25.083 34.61 27.489 29.53 27.886 22.29H36.338C35.696 29.86 30.271 36.02 23.21 37.51ZM3.46902 22.29H12.029C12.419 29.65 14.717 34.64 16.551 37.5C9.51302 36 4.10902 29.84 3.46902 22.29ZM16.452 4.11998C14.527 7.00998 12.164 12.03 11.991 19.29H3.46902C4.10502 11.79 9.46302 5.65998 16.452 4.11998ZM14.984 19.29C15.19 11.47 18.258 6.55998 19.898 4.48998C21.561 6.58998 24.688 11.56 24.928 19.29H14.984ZM19.887 37.03C18.318 34.93 15.491 30.11 15.034 22.29H24.882C24.417 29.9 21.487 34.86 19.887 37.03ZM36.338 19.29H27.92C27.718 12.11 25.282 7.02998 23.331 4.10998C30.332 5.63998 35.7 11.78 36.338 19.29ZM19.921 0.72998C19.918 0.72998 19.915 0.72998 19.912 0.72998C19.909 0.72998 19.906 0.72998 19.903 0.72998C9.14602 0.72998 0.39502 9.72998 0.39502 20.79C0.39502 31.86 9.14602 40.86 19.903 40.86C30.66 40.86 39.411 31.86 39.411 20.79C39.411 9.73998 30.67 0.73998 19.921 0.72998Z" fill="#1A1919"/>
</svg>

<svg xmlns="http://www.w3.org/2000/svg" viewBox="0 0 40 41"><path fill-rule="evenodd" d="M23.21 37.51c1.873-2.9 4.279-7.98 4.676-15.22h8.452c-.642 7.57-6.067 13.73-13.128 15.22zM3.469 22.29h8.56c.39 7.36 2.688 12.35 4.522 15.21C9.513 36 4.109 29.84 3.469 22.29zM16.452 4.12c-1.925 2.89-4.288 7.91-4.461 15.17H3.469c.636-7.5 5.994-13.63 12.983-15.17zm-1.468 15.17c.206-7.82 3.274-12.73 4.914-14.8 1.663 2.1 4.79 7.07 5.03 14.8h-9.944zm4.903 17.74c-1.569-2.1-4.396-6.92-4.853-14.74h9.848c-.465 7.61-3.395 12.57-4.995 14.74zm16.451-17.74H27.92c-.202-7.18-2.638-12.26-4.589-15.18 7.001 1.53 12.369 7.67 13.007 15.18zM19.921.73h-.018C9.146.73.395 9.73.395 20.79c0 11.07 8.751 20.07 19.508 20.07s19.508-9 19.508-20.07C39.411 9.74 30.67.74 19.921.73z" clip-rule="evenodd"/></svg>
